X: 22
T:Tempo de Vals
M:3/4
L:1/4
Q:200
C:Trad
S:X.L.Foxo
K:D
A2G | F2A | G2B | A2F | A2G | F2A | G2E | F3  | A2G |
F2A | G2B | A2F | A2G | F2A | G2E | F3| AGF | E3 |
BAG | F3 | AGF | E3 | BAG | F3 | ABc | d2A |
F2B | A3 | dcB | A2 {c}A | GFE | D2 Z ||

